icons/circle/48/lightworks.svg

<svg viewBox="0 0 48 48" xmlns="http://www.w3.org/2000/svg">
 <defs>
  <linearGradient id="linearGradient3764" x1="1" x2="47" gradientTransform="matrix(0 -1 1 0 -1.5e-6 48)" gradientUnits="userSpaceOnUse">
   <stop style="stop-color:#1b3345" offset="0"/>
   <stop style="stop-color:#203d54" offset="1"/>
  </linearGradient>
  <linearGradient id="linearGradient4239" x2="0" y1="43" y2="69" gradientTransform="translate(0,-32)" gradientUnits="userSpaceOnUse">
   <stop style="stop-color:#d3dfe5" offset="0"/>
   <stop style="stop-color:#868c92" offset="1"/>
  </linearGradient>
 </defs>
 <path d="m36.31 5c5.859 4.062 9.688 10.831 9.688 18.5 0 12.426-10.07 22.5-22.5 22.5-7.669 0-14.438-3.828-18.5-9.688 1.037 1.822 2.306 3.499 3.781 4.969 4.085 3.712 9.514 5.969 15.469 5.969 12.703 0 23-10.298 23-23 0-5.954-2.256-11.384-5.969-15.469-1.469-1.475-3.147-2.744-4.969-3.781zm4.969 3.781c3.854 4.113 6.219 9.637 6.219 15.719 0 12.703-10.297 23-23 23-6.081 0-11.606-2.364-15.719-6.219 4.16 4.144 9.883 6.719 16.219 6.719 12.703 0 23-10.298 23-23 0-6.335-2.575-12.06-6.719-16.219z" style="opacity:.05"/>
 <path d="m41.28 8.781c3.712 4.085 5.969 9.514 5.969 15.469 0 12.703-10.297 23-23 23-5.954 0-11.384-2.256-15.469-5.969 4.113 3.854 9.637 6.219 15.719 6.219 12.703 0 23-10.298 23-23 0-6.081-2.364-11.606-6.219-15.719z" style="opacity:.1"/>
 <path d="m31.25 2.375c8.615 3.154 14.75 11.417 14.75 21.13 0 12.426-10.07 22.5-22.5 22.5-9.708 0-17.971-6.135-21.12-14.75a23 23 0 0 0 44.875-7 23 23 0 0 0-16-21.875z" style="opacity:.2"/>
 <path d="m24 1c12.703 0 23 10.297 23 23s-10.297 23-23 23-23-10.297-23-23 10.297-23 23-23z" style="fill:url(#linearGradient3764)"/>
 <g transform="translate(1,1)"></g>
 <path d="m40.03 7.531c3.712 4.084 5.969 9.514 5.969 15.469 0 12.703-10.297 23-23 23-5.954 0-11.384-2.256-15.469-5.969 4.178 4.291 10.01 6.969 16.469 6.969 12.703 0 23-10.298 23-23 0-6.462-2.677-12.291-6.969-16.469z" style="opacity:.1"/>
 <path d="m18 12a6 6 0 0 0-6 6 6 6 0 0 0 6 6 6 6 0 0 0 0.08-4e-3 7 7 0 0 1 5.918-5.918 6 6 0 0 0 2e-3 -0.078 6 6 0 0 0-6-6m14 0a6 6 0 0 0-6 6 6 6 0 0 0 4e-3 0.08 7 7 0 0 1 5.918 5.918 6 6 0 0 0 0.078 2e-3 6 6 0 0 0 6-6 6 6 0 0 0-6-6m-8 7.086a6 6 0 0 0-4.91 4.914h4.91v-4.91m2 4e-3v4.906h4.914a6 6 0 0 0-4.914-4.91m-8 6.91a6 6 0 0 0-6 6 6 6 0 0 0 6 6 6 6 0 0 0 6-6 6 6 0 0 0-4e-3 -0.08 7 7 0 0 1-5.916-5.92 6 6 0 0 0-0.08 0m1.086 0a6 6 0 0 0 4.914 4.91v-4.91h-4.91m6.91 0v4.914a6 6 0 0 0 4.91-4.914h-4.91m6 0a6 6 0 0 0-0.08 0 7 7 0 0 1-5.92 5.922 6 6 0 0 0 0 0.078 6 6 0 0 0 6 6 6 6 0 0 0 6-6 6 6 0 0 0-6-6z" style="opacity:.1"/>
 <path d="m17 11a6 6 0 0 0-6 6 6 6 0 0 0 6 6 6 6 0 0 0 0.08-4e-3 7 7 0 0 1 5.918-5.918 6 6 0 0 0 2e-3 -0.078 6 6 0 0 0-6-6m14 0a6 6 0 0 0-6 6 6 6 0 0 0 4e-3 0.08 7 7 0 0 1 5.918 5.918 6 6 0 0 0 0.078 2e-3 6 6 0 0 0 6-6 6 6 0 0 0-6-6m-8 7.086a6 6 0 0 0-4.91 4.914h4.91v-4.91m2 4e-3v4.906h4.914a6 6 0 0 0-4.914-4.91m-8 6.91a6 6 0 0 0-6 6 6 6 0 0 0 6 6 6 6 0 0 0 6-6 6 6 0 0 0-4e-3 -0.08 7 7 0 0 1-5.916-5.92 6 6 0 0 0-0.08 0m1.086 0a6 6 0 0 0 4.914 4.91v-4.91h-4.91m6.91 0v4.914a6 6 0 0 0 4.91-4.914h-4.91m6 0a6 6 0 0 0-0.08 0 7 7 0 0 1-5.92 5.922 6 6 0 0 0 0 0.078 6 6 0 0 0 6 6 6 6 0 0 0 6-6 6 6 0 0 0-6-6z" style="fill:url(#linearGradient4239)"/>
</svg>

<svg xmlns="http://www.w3.org/2000/svg" viewBox="0 0 48 48">
 <defs>
  <linearGradient id="linearGradient3764" x1="1" x2="47" gradientUnits="userSpaceOnUse" gradientTransform="matrix(0,-1,1,0,-1.5e-6,47.999998)">
   <stop style="stop-color:#1b3345;stop-opacity:1"/>
   <stop offset="1" style="stop-color:#203d54;stop-opacity:1"/>
  </linearGradient>
  <linearGradient id="linearGradient4239" y1="43" x2="0" y2="69" gradientUnits="userSpaceOnUse" gradientTransform="translate(0,-32)">
   <stop style="stop-color:#d3dfe5;stop-opacity:1"/>
   <stop offset="1" style="stop-color:#868c92;stop-opacity:1"/>
  </linearGradient>
 </defs>
 <g>
  <path d="m 36.31 5 c 5.859 4.062 9.688 10.831 9.688 18.5 c 0 12.426 -10.07 22.5 -22.5 22.5 c -7.669 0 -14.438 -3.828 -18.5 -9.688 c 1.037 1.822 2.306 3.499 3.781 4.969 c 4.085 3.712 9.514 5.969 15.469 5.969 c 12.703 0 23 -10.298 23 -23 c 0 -5.954 -2.256 -11.384 -5.969 -15.469 c -1.469 -1.475 -3.147 -2.744 -4.969 -3.781 z m 4.969 3.781 c 3.854 4.113 6.219 9.637 6.219 15.719 c 0 12.703 -10.297 23 -23 23 c -6.081 0 -11.606 -2.364 -15.719 -6.219 c 4.16 4.144 9.883 6.719 16.219 6.719 c 12.703 0 23 -10.298 23 -23 c 0 -6.335 -2.575 -12.06 -6.719 -16.219 z" style="opacity:0.05"/>
  <path d="m 41.28 8.781 c 3.712 4.085 5.969 9.514 5.969 15.469 c 0 12.703 -10.297 23 -23 23 c -5.954 0 -11.384 -2.256 -15.469 -5.969 c 4.113 3.854 9.637 6.219 15.719 6.219 c 12.703 0 23 -10.298 23 -23 c 0 -6.081 -2.364 -11.606 -6.219 -15.719 z" style="opacity:0.1"/>
  <path d="m 31.25 2.375 c 8.615 3.154 14.75 11.417 14.75 21.13 c 0 12.426 -10.07 22.5 -22.5 22.5 c -9.708 0 -17.971 -6.135 -21.12 -14.75 a 23 23 0 0 0 44.875 -7 a 23 23 0 0 0 -16 -21.875 z" style="opacity:0.2"/>
 </g>
 <g>
  <path d="m 24 1 c 12.703 0 23 10.297 23 23 c 0 12.703 -10.297 23 -23 23 -12.703 0 -23 -10.297 -23 -23 0 -12.703 10.297 -23 23 -23 z" style="fill:url(#linearGradient3764);fill-opacity:1"/>
 </g>
 <g>
  <g>
   <g transform="translate(1,1)">
    <g style="opacity:0.1">
     <!-- color: #1d384d -->
    </g>
   </g>
  </g>
 </g>
 <g>
  <g>
   <!-- color: #1d384d -->
  </g>
 </g>
 <g>
  <path d="m 40.03 7.531 c 3.712 4.084 5.969 9.514 5.969 15.469 0 12.703 -10.297 23 -23 23 c -5.954 0 -11.384 -2.256 -15.469 -5.969 4.178 4.291 10.01 6.969 16.469 6.969 c 12.703 0 23 -10.298 23 -23 0 -6.462 -2.677 -12.291 -6.969 -16.469 z" style="opacity:0.1"/>
 </g>
 <path d="m 18 12 a 6 6 0 0 0 -6 6 6 6 0 0 0 6 6 6 6 0 0 0 0.08 -0.004 7 7 0 0 1 5.918 -5.918 A 6 6 0 0 0 24 18 6 6 0 0 0 18 12 m 14 0 a 6 6 0 0 0 -6 6 6 6 0 0 0 0.004 0.08 7 7 0 0 1 5.918 5.918 A 6 6 0 0 0 32 24 6 6 0 0 0 38 18 6 6 0 0 0 32 12 m -8 7.086 A 6 6 0 0 0 19.09 24 L 24 24 24 19.09 m 2 0.004 L 26 24 30.914 24 A 6 6 0 0 0 26 19.09 M 18 26 a 6 6 0 0 0 -6 6 6 6 0 0 0 6 6 6 6 0 0 0 6 -6 A 6 6 0 0 0 23.996 31.92 7 7 0 0 1 18.08 26 6 6 0 0 0 18 26 m 1.086 0 A 6 6 0 0 0 24 30.91 L 24 26 19.09 26 M 26 26 26 30.914 A 6 6 0 0 0 30.91 26 L 26 26 m 6 0 A 6 6 0 0 0 31.92 26 7 7 0 0 1 26 31.922 6 6 0 0 0 26 32 a 6 6 0 0 0 6 6 6 6 0 0 0 6 -6 6 6 0 0 0 -6 -6 z" style="fill:#000;opacity:0.1;fill-opacity:1;stroke:none"/>
 <path d="m 17 11 a 6 6 0 0 0 -6 6 6 6 0 0 0 6 6 6 6 0 0 0 0.08 -0.004 7 7 0 0 1 5.918 -5.918 A 6 6 0 0 0 23 17 6 6 0 0 0 17 11 m 14 0 a 6 6 0 0 0 -6 6 6 6 0 0 0 0.004 0.08 7 7 0 0 1 5.918 5.918 A 6 6 0 0 0 31 23 6 6 0 0 0 37 17 6 6 0 0 0 31 11 m -8 7.086 A 6 6 0 0 0 18.09 23 L 23 23 23 18.09 m 2 0.004 L 25 23 29.914 23 A 6 6 0 0 0 25 18.09 M 17 25 a 6 6 0 0 0 -6 6 6 6 0 0 0 6 6 6 6 0 0 0 6 -6 A 6 6 0 0 0 22.996 30.92 7 7 0 0 1 17.08 25 6 6 0 0 0 17 25 m 1.086 0 A 6 6 0 0 0 23 29.91 L 23 25 18.09 25 M 25 25 25 29.914 A 6 6 0 0 0 29.91 25 L 25 25 m 6 0 A 6 6 0 0 0 30.92 25 7 7 0 0 1 25 30.922 6 6 0 0 0 25 31 a 6 6 0 0 0 6 6 6 6 0 0 0 6 -6 6 6 0 0 0 -6 -6 z" style="fill:url(#linearGradient4239);opacity:1;fill-opacity:1;stroke:none"/>
</svg>
